images/5459740.svg

<?xml version="1.0" encoding="UTF-8"?>
<svg xmlns="http://www.w3.org/2000/svg" xmlns:xlink="http://www.w3.org/1999/xlink" width="300pt" height="300pt" viewBox="0 0 300 300" version="1.1">
<defs>
<g>
<symbol overflow="visible" id="glyph0-0">
<path style="stroke:none;" d="M 0.546875 1.9375 L 0.546875 -7.75 L 6.046875 -7.75 L 6.046875 1.9375 Z M 1.171875 1.328125 L 5.4375 1.328125 L 5.4375 -7.140625 L 1.171875 -7.140625 Z M 1.171875 1.328125 "/>
</symbol>
<symbol overflow="visible" id="glyph0-1">
<path style="stroke:none;" d="M 1.078125 -8.015625 L 2.546875 -8.015625 L 6.09375 -1.3125 L 6.09375 -8.015625 L 7.15625 -8.015625 L 7.15625 0 L 5.6875 0 L 2.125 -6.703125 L 2.125 0 L 1.078125 0 Z M 1.078125 -8.015625 "/>
</symbol>
<symbol overflow="visible" id="glyph0-2">
<path style="stroke:none;" d="M 4.328125 -7.28125 C 3.546875 -7.28125 2.921875 -6.984375 2.453125 -6.390625 C 1.992188 -5.804688 1.765625 -5.007812 1.765625 -4 C 1.765625 -2.988281 1.992188 -2.1875 2.453125 -1.59375 C 2.921875 -1.007812 3.546875 -0.71875 4.328125 -0.71875 C 5.117188 -0.71875 5.742188 -1.007812 6.203125 -1.59375 C 6.660156 -2.1875 6.890625 -2.988281 6.890625 -4 C 6.890625 -5.007812 6.660156 -5.804688 6.203125 -6.390625 C 5.742188 -6.984375 5.117188 -7.28125 4.328125 -7.28125 Z M 4.328125 -8.171875 C 5.453125 -8.171875 6.351562 -7.789062 7.03125 -7.03125 C 7.707031 -6.28125 8.046875 -5.269531 8.046875 -4 C 8.046875 -2.738281 7.707031 -1.726562 7.03125 -0.96875 C 6.351562 -0.21875 5.453125 0.15625 4.328125 0.15625 C 3.203125 0.15625 2.300781 -0.21875 1.625 -0.96875 C 0.957031 -1.71875 0.625 -2.726562 0.625 -4 C 0.625 -5.269531 0.957031 -6.28125 1.625 -7.03125 C 2.300781 -7.789062 3.203125 -8.171875 4.328125 -8.171875 Z M 4.328125 -8.171875 "/>
</symbol>
<symbol overflow="visible" id="glyph0-3">
<path style="stroke:none;" d="M 1.078125 -8.015625 L 2.171875 -8.015625 L 2.171875 -4.734375 L 6.109375 -4.734375 L 6.109375 -8.015625 L 7.1875 -8.015625 L 7.1875 0 L 6.109375 0 L 6.109375 -3.8125 L 2.171875 -3.8125 L 2.171875 0 L 1.078125 0 Z M 1.078125 -8.015625 "/>
</symbol>
</g>
</defs>
<g id="surface33533">
<rect x="0" y="0" width="300" height="300" style="fill:rgb(100%,100%,100%);fill-opacity:1;stroke:none;"/>
<path style="fill:none;stroke-width:1;stroke-linecap:butt;stroke-linejoin:miter;stroke:rgb(0%,0%,0%);stroke-opacity:1;stroke-miterlimit:10;" d="M 49.875 185.109375 L 49.875 185.109375 M 47.757812 187.238281 L 48.613281 187.832031 M 45.644531 189.367188 L 47.355469 190.554688 M 43.527344 191.492188 L 46.09375 193.28125 M 41.410156 193.621094 L 44.835938 196.003906 M 39.296875 195.746094 L 43.574219 198.726562 M 37.179688 197.875 L 42.316406 201.449219 M 35.066406 200 L 41.058594 204.171875 M 32.949219 202.128906 L 39.796875 206.894531 M 31.542969 203.546875 L 38.957031 208.707031 "/>
<path style="fill:none;stroke-width:1.2;stroke-linecap:butt;stroke-linejoin:miter;stroke:rgb(0%,0%,0%);stroke-opacity:1;stroke-miterlimit:10;" d="M 49.875 185.109375 L 41.46875 160.929688 "/>
<path style="fill:none;stroke-width:1.2;stroke-linecap:butt;stroke-linejoin:miter;stroke:rgb(0%,0%,100%);stroke-opacity:1;stroke-miterlimit:10;" d="M 75.46875 184.589844 L 62.671875 184.851562 "/>
<path style="fill:none;stroke-width:1.2;stroke-linecap:butt;stroke-linejoin:miter;stroke:rgb(0%,0%,0%);stroke-opacity:1;stroke-miterlimit:10;" d="M 62.671875 184.851562 L 49.875 185.109375 "/>
<path style="fill:none;stroke-width:1.2;stroke-linecap:butt;stroke-linejoin:miter;stroke:rgb(0%,0%,0%);stroke-opacity:1;stroke-miterlimit:10;" d="M 41.46875 160.929688 L 61.867188 145.460938 "/>
<path style="fill:none;stroke-width:1.2;stroke-linecap:butt;stroke-linejoin:miter;stroke:rgb(0%,0%,0%);stroke-opacity:1;stroke-miterlimit:10;" d="M 47.148438 164.179688 L 63.46875 151.808594 "/>
<path style="fill:none;stroke-width:1.2;stroke-linecap:butt;stroke-linejoin:miter;stroke:rgb(0%,0%,0%);stroke-opacity:1;stroke-miterlimit:10;" d="M 61.867188 145.460938 L 82.882812 160.082031 "/>
<path style="fill:none;stroke-width:1.2;stroke-linecap:butt;stroke-linejoin:miter;stroke:rgb(0%,0%,0%);stroke-opacity:1;stroke-miterlimit:10;" d="M 82.882812 160.082031 L 79.175781 172.335938 "/>
<path style="fill:none;stroke-width:1.2;stroke-linecap:butt;stroke-linejoin:miter;stroke:rgb(0%,0%,100%);stroke-opacity:1;stroke-miterlimit:10;" d="M 79.175781 172.335938 L 75.46875 184.589844 "/>
<path style=" stroke:none;fill-rule:nonzero;fill:rgb(0%,0%,0%);fill-opacity:1;" d="M 82.882812 160.082031 L 99.1875 139.832031 L 91.273438 135.476562 Z M 82.882812 160.082031 "/>
<path style="fill:none;stroke-width:1.2;stroke-linecap:butt;stroke-linejoin:miter;stroke:rgb(0%,0%,0%);stroke-opacity:1;stroke-miterlimit:10;" d="M 82.882812 160.082031 L 106.480469 170.019531 "/>
<path style="fill:none;stroke-width:1.2;stroke-linecap:butt;stroke-linejoin:miter;stroke:rgb(0%,0%,100%);stroke-opacity:1;stroke-miterlimit:10;" d="M 75.46875 184.589844 L 83.203125 194.789062 "/>
<path style="fill:none;stroke-width:1.2;stroke-linecap:butt;stroke-linejoin:miter;stroke:rgb(0%,0%,0%);stroke-opacity:1;stroke-miterlimit:10;" d="M 83.203125 194.789062 L 90.9375 204.992188 "/>
<path style=" stroke:none;fill-rule:nonzero;fill:rgb(100%,100%,100%);fill-opacity:1;" d="M 71.46875 178.089844 L 79.46875 178.089844 L 79.46875 191.089844 L 71.46875 191.089844 Z M 71.46875 178.089844 "/>
<g style="fill:rgb(0%,0%,100%);fill-opacity:1;">
  <use xlink:href="#glyph0-1" x="71.46875" y="187.991211"/>
</g>
<path style="fill:none;stroke-width:1.2;stroke-linecap:butt;stroke-linejoin:miter;stroke:rgb(0%,0%,0%);stroke-opacity:1;stroke-miterlimit:10;" d="M 88.164062 203.820312 L 83.195312 215.621094 "/>
<path style="fill:none;stroke-width:1.2;stroke-linecap:butt;stroke-linejoin:miter;stroke:rgb(100%,0%,0%);stroke-opacity:1;stroke-miterlimit:10;" d="M 83.195312 215.621094 L 78.226562 227.417969 "/>
<path style="fill:none;stroke-width:1.2;stroke-linecap:butt;stroke-linejoin:miter;stroke:rgb(0%,0%,0%);stroke-opacity:1;stroke-miterlimit:10;" d="M 93.714844 206.160156 L 88.746094 217.957031 "/>
<path style="fill:none;stroke-width:1.2;stroke-linecap:butt;stroke-linejoin:miter;stroke:rgb(100%,0%,0%);stroke-opacity:1;stroke-miterlimit:10;" d="M 88.746094 217.957031 L 83.78125 229.757812 "/>
<path style="fill:none;stroke-width:1.2;stroke-linecap:butt;stroke-linejoin:miter;stroke:rgb(0%,0%,0%);stroke-opacity:1;stroke-miterlimit:10;" d="M 90.9375 204.992188 L 111.675781 204.929688 "/>
<path style=" stroke:none;fill-rule:nonzero;fill:rgb(100%,100%,100%);fill-opacity:1;" d="M 72.003906 222.085938 L 81.003906 222.085938 L 81.003906 235.085938 L 72.003906 235.085938 Z M 72.003906 222.085938 "/>
<g style="fill:rgb(100%,0%,0%);fill-opacity:1;">
  <use xlink:href="#glyph0-2" x="72.003906" y="231.987305"/>
</g>
<path style="fill:none;stroke-width:1.2;stroke-linecap:butt;stroke-linejoin:miter;stroke:rgb(0%,0%,0%);stroke-opacity:1;stroke-miterlimit:10;" d="M 95.230469 137.65625 L 81.980469 115.75 "/>
<path style="fill:none;stroke-width:1.2;stroke-linecap:butt;stroke-linejoin:miter;stroke:rgb(0%,0%,0%);stroke-opacity:1;stroke-miterlimit:10;" d="M 81.980469 115.75 L 94.328125 93.320312 "/>
<path style="fill:none;stroke-width:1.2;stroke-linecap:butt;stroke-linejoin:miter;stroke:rgb(0%,0%,0%);stroke-opacity:1;stroke-miterlimit:10;" d="M 77.9375 110.601562 L 87.816406 92.65625 "/>
<path style="fill:none;stroke-width:1.2;stroke-linecap:butt;stroke-linejoin:miter;stroke:rgb(0%,0%,0%);stroke-opacity:1;stroke-miterlimit:10;" d="M 56.382812 116.269531 L 81.980469 115.75 "/>
<path style="fill:none;stroke-width:1.2;stroke-linecap:butt;stroke-linejoin:miter;stroke:rgb(0%,0%,0%);stroke-opacity:1;stroke-miterlimit:10;" d="M 94.328125 93.320312 L 81.078125 71.414062 "/>
<path style="fill:none;stroke-width:1.2;stroke-linecap:butt;stroke-linejoin:miter;stroke:rgb(0%,0%,0%);stroke-opacity:1;stroke-miterlimit:10;" d="M 81.078125 71.414062 L 55.480469 71.933594 "/>
<path style="fill:none;stroke-width:1.2;stroke-linecap:butt;stroke-linejoin:miter;stroke:rgb(0%,0%,0%);stroke-opacity:1;stroke-miterlimit:10;" d="M 78.640625 77.488281 L 58.160156 77.90625 "/>
<path style="fill:none;stroke-width:1.2;stroke-linecap:butt;stroke-linejoin:miter;stroke:rgb(0%,0%,0%);stroke-opacity:1;stroke-miterlimit:10;" d="M 55.480469 71.933594 L 43.132812 94.363281 "/>
<path style="fill:none;stroke-width:1.2;stroke-linecap:butt;stroke-linejoin:miter;stroke:rgb(0%,0%,0%);stroke-opacity:1;stroke-miterlimit:10;" d="M 43.132812 94.363281 L 56.382812 116.269531 "/>
<path style="fill:none;stroke-width:1.2;stroke-linecap:butt;stroke-linejoin:miter;stroke:rgb(0%,0%,0%);stroke-opacity:1;stroke-miterlimit:10;" d="M 49.613281 93.4375 L 60.214844 110.960938 "/>
<path style="fill:none;stroke-width:1.2;stroke-linecap:butt;stroke-linejoin:miter;stroke:rgb(0%,0%,0%);stroke-opacity:1;stroke-miterlimit:10;" d="M 103.558594 170.753906 L 106.097656 180.808594 "/>
<path style="fill:none;stroke-width:1.2;stroke-linecap:butt;stroke-linejoin:miter;stroke:rgb(100%,0%,0%);stroke-opacity:1;stroke-miterlimit:10;" d="M 106.097656 180.808594 L 108.636719 190.863281 "/>
<path style="fill:none;stroke-width:1.2;stroke-linecap:butt;stroke-linejoin:miter;stroke:rgb(0%,0%,0%);stroke-opacity:1;stroke-miterlimit:10;" d="M 109.402344 169.28125 L 111.9375 179.335938 "/>
<path style="fill:none;stroke-width:1.2;stroke-linecap:butt;stroke-linejoin:miter;stroke:rgb(100%,0%,0%);stroke-opacity:1;stroke-miterlimit:10;" d="M 111.9375 179.335938 L 114.476562 189.386719 "/>
<path style="fill:none;stroke-width:1.2;stroke-linecap:butt;stroke-linejoin:miter;stroke:rgb(0%,0%,0%);stroke-opacity:1;stroke-miterlimit:10;" d="M 106.480469 170.019531 L 116.679688 162.285156 "/>
<path style="fill:none;stroke-width:1.2;stroke-linecap:butt;stroke-linejoin:miter;stroke:rgb(0%,0%,100%);stroke-opacity:1;stroke-miterlimit:10;" d="M 116.679688 162.285156 L 126.882812 154.550781 "/>
<path style=" stroke:none;fill-rule:nonzero;fill:rgb(100%,100%,100%);fill-opacity:1;" d="M 107.558594 183.625 L 116.558594 183.625 L 116.558594 196.625 L 107.558594 196.625 Z M 107.558594 183.625 "/>
<g style="fill:rgb(100%,0%,0%);fill-opacity:1;">
  <use xlink:href="#glyph0-2" x="107.558594" y="193.526367"/>
</g>
<path style="fill:none;stroke-width:1.2;stroke-linecap:butt;stroke-linejoin:miter;stroke:rgb(0%,0%,100%);stroke-opacity:1;stroke-miterlimit:10;" d="M 126.882812 154.550781 L 138.679688 159.519531 "/>
<path style="fill:none;stroke-width:1.2;stroke-linecap:butt;stroke-linejoin:miter;stroke:rgb(0%,0%,0%);stroke-opacity:1;stroke-miterlimit:10;" d="M 138.679688 159.519531 L 150.480469 164.484375 "/>
<path style=" stroke:none;fill-rule:nonzero;fill:rgb(100%,100%,100%);fill-opacity:1;" d="M 118.882812 148.050781 L 135.882812 148.050781 L 135.882812 161.050781 L 118.882812 161.050781 Z M 118.882812 148.050781 "/>
<g style="fill:rgb(0%,0%,100%);fill-opacity:1;">
  <use xlink:href="#glyph0-1" x="118.882812" y="157.952148"/>
  <use xlink:href="#glyph0-3" x="126.866211" y="157.952148"/>
</g>
<path style="fill:none;stroke-width:1.2;stroke-linecap:butt;stroke-linejoin:miter;stroke:rgb(0%,0%,0%);stroke-opacity:1;stroke-miterlimit:10;" d="M 150.480469 164.484375 L 170.878906 149.015625 "/>
<path style="fill:none;stroke-width:1.2;stroke-linecap:butt;stroke-linejoin:miter;stroke:rgb(0%,0%,0%);stroke-opacity:1;stroke-miterlimit:10;" d="M 170.878906 149.015625 L 194.476562 158.953125 "/>
<path style="fill:none;stroke-width:1.2;stroke-linecap:butt;stroke-linejoin:miter;stroke:rgb(0%,0%,0%);stroke-opacity:1;stroke-miterlimit:10;" d="M 194.476562 158.953125 L 200.308594 183.882812 "/>
<path style="fill:none;stroke-width:1.2;stroke-linecap:butt;stroke-linejoin:miter;stroke:rgb(0%,0%,0%);stroke-opacity:1;stroke-miterlimit:10;" d="M 200.925781 160.074219 L 205.59375 180.015625 "/>
<path style="fill:none;stroke-width:1.2;stroke-linecap:butt;stroke-linejoin:miter;stroke:rgb(0%,0%,0%);stroke-opacity:1;stroke-miterlimit:10;" d="M 216.382812 145.703125 L 194.476562 158.953125 "/>
<path style="fill:none;stroke-width:1.2;stroke-linecap:butt;stroke-linejoin:miter;stroke:rgb(0%,0%,0%);stroke-opacity:1;stroke-miterlimit:10;" d="M 200.308594 183.882812 L 213.066406 184.960938 "/>
<path style="fill:none;stroke-width:1.2;stroke-linecap:butt;stroke-linejoin:miter;stroke:rgb(0%,0%,100%);stroke-opacity:1;stroke-miterlimit:10;" d="M 213.066406 184.960938 L 225.820312 186.039062 "/>
<path style="fill:none;stroke-width:1.2;stroke-linecap:butt;stroke-linejoin:miter;stroke:rgb(0%,0%,100%);stroke-opacity:1;stroke-miterlimit:10;" d="M 225.820312 186.039062 L 230.789062 174.238281 "/>
<path style="fill:none;stroke-width:1.2;stroke-linecap:butt;stroke-linejoin:miter;stroke:rgb(0%,0%,0%);stroke-opacity:1;stroke-miterlimit:10;" d="M 230.789062 174.238281 L 235.753906 162.441406 "/>
<path style=" stroke:none;fill-rule:nonzero;fill:rgb(100%,100%,100%);fill-opacity:1;" d="M 217.820312 179.539062 L 234.820312 179.539062 L 234.820312 192.539062 L 217.820312 192.539062 Z M 217.820312 179.539062 "/>
<g style="fill:rgb(0%,0%,100%);fill-opacity:1;">
  <use xlink:href="#glyph0-1" x="217.820312" y="189.44043"/>
  <use xlink:href="#glyph0-3" x="225.803711" y="189.44043"/>
</g>
<path style="fill:none;stroke-width:1.2;stroke-linecap:butt;stroke-linejoin:miter;stroke:rgb(0%,0%,0%);stroke-opacity:1;stroke-miterlimit:10;" d="M 235.753906 162.441406 L 259.9375 154.035156 "/>
<path style="fill:none;stroke-width:1.2;stroke-linecap:butt;stroke-linejoin:miter;stroke:rgb(0%,0%,0%);stroke-opacity:1;stroke-miterlimit:10;" d="M 236.195312 155.910156 L 255.542969 149.1875 "/>
<path style="fill:none;stroke-width:1.2;stroke-linecap:butt;stroke-linejoin:miter;stroke:rgb(0%,0%,0%);stroke-opacity:1;stroke-miterlimit:10;" d="M 216.382812 145.703125 L 235.753906 162.441406 "/>
<path style="fill:none;stroke-width:1.2;stroke-linecap:butt;stroke-linejoin:miter;stroke:rgb(0%,0%,0%);stroke-opacity:1;stroke-miterlimit:10;" d="M 259.9375 154.035156 L 264.75 128.890625 "/>
<path style="fill:none;stroke-width:1.2;stroke-linecap:butt;stroke-linejoin:miter;stroke:rgb(0%,0%,0%);stroke-opacity:1;stroke-miterlimit:10;" d="M 264.75 128.890625 L 245.378906 112.148438 "/>
<path style="fill:none;stroke-width:1.2;stroke-linecap:butt;stroke-linejoin:miter;stroke:rgb(0%,0%,0%);stroke-opacity:1;stroke-miterlimit:10;" d="M 258.875 131.773438 L 243.375 118.382812 "/>
<path style="fill:none;stroke-width:1.2;stroke-linecap:butt;stroke-linejoin:miter;stroke:rgb(0%,0%,0%);stroke-opacity:1;stroke-miterlimit:10;" d="M 245.378906 112.148438 L 221.195312 120.554688 "/>
<path style="fill:none;stroke-width:1.2;stroke-linecap:butt;stroke-linejoin:miter;stroke:rgb(0%,0%,0%);stroke-opacity:1;stroke-miterlimit:10;" d="M 221.195312 120.554688 L 216.382812 145.703125 "/>
<path style="fill:none;stroke-width:1.2;stroke-linecap:butt;stroke-linejoin:miter;stroke:rgb(0%,0%,0%);stroke-opacity:1;stroke-miterlimit:10;" d="M 226.632812 124.203125 L 222.78125 144.320312 "/>
</g>
</svg>

<svg xmlns="http://www.w3.org/2000/svg" xmlns:xlink="http://www.w3.org/1999/xlink" width="300pt" height="300pt" viewBox="0 0 300 300"><defs><symbol overflow="visible"><path d="M.547 1.938V-7.75h5.5v9.688zm.625-.61h4.266v-8.47H1.171zm0 0"/></symbol><symbol overflow="visible" id="a"><path d="M1.078-8.016h1.47l3.546 6.704v-6.704h1.062V0H5.688L2.124-6.703V0H1.078zm0 0"/></symbol><symbol overflow="visible" id="b"><path d="M4.328-7.28c-.78 0-1.406.296-1.875.89-.46.585-.687 1.382-.687 2.39 0 1.012.226 1.813.687 2.406.47.586 1.094.875 1.875.875.79 0 1.414-.288 1.875-.874.457-.593.688-1.394.688-2.406 0-1.008-.23-1.805-.687-2.39-.46-.594-1.086-.89-1.875-.89zm0-.892c1.125 0 2.024.383 2.703 1.14C7.708-6.28 8.048-5.27 8.048-4c0 1.262-.34 2.273-1.016 3.03C6.353-.22 5.454.157 4.33.157S2.3-.22 1.625-.97c-.668-.75-1-1.757-1-3.03 0-1.27.332-2.28 1-3.03.676-.76 1.578-1.142 2.703-1.142zm0 0"/></symbol><symbol overflow="visible" id="c"><path d="M1.078-8.016h1.094v3.282H6.11v-3.282h1.077V0H6.11v-3.813H2.17V0H1.078zm0 0"/></symbol></defs><g><path fill="#fff" d="M0 0h300v300H0z"/><path d="M49.875 185.11m-2.117 2.128l.855.594m-2.968 1.535l1.71 1.188m-3.828.937l2.567 1.79m-4.684.34l3.426 2.382m-5.54-.258l4.278 2.98m-6.394-.85l5.136 3.573m-7.25-1.45l5.993 4.172m-8.11-2.043l6.847 4.765m-8.254-3.348l7.414 5.16" stroke="#000" stroke-miterlimit="10" fill="none"/><path d="M49.875 185.11l-8.406-24.18" stroke-width="1.2" stroke="#000" stroke-miterlimit="10" fill="none"/><path d="M75.47 184.59l-12.798.262" stroke-width="1.2" stroke="#00f" stroke-miterlimit="10" fill="none"/><path d="M62.672 184.852l-12.797.257M41.47 160.93l20.397-15.47M47.148 164.18l16.32-12.37M61.867 145.46l21.016 14.622M82.883 160.082l-3.707 12.254" stroke-width="1.2" stroke="#000" stroke-miterlimit="10" fill="none"/><path d="M79.176 172.336L75.47 184.59" stroke-width="1.2" stroke="#00f" stroke-miterlimit="10" fill="none"/><path d="M82.883 160.082l16.305-20.25-7.915-4.355zm0 0"/><path d="M82.883 160.082l23.597 9.938" stroke-width="1.2" stroke="#000" stroke-miterlimit="10" fill="none"/><path d="M75.47 184.59l7.733 10.2" stroke-width="1.2" stroke="#00f" stroke-miterlimit="10" fill="none"/><path d="M83.203 194.79l7.734 10.202" stroke-width="1.2" stroke="#000" stroke-miterlimit="10" fill="none"/><path d="M71.47 178.09h8v13h-8zm0 0" fill="#fff"/><use xlink:href="#a" x="71.469" y="187.991" fill="#00f"/><path d="M88.164 203.82l-4.97 11.8" stroke-width="1.2" stroke="#000" stroke-miterlimit="10" fill="none"/><path d="M83.195 215.62l-4.968 11.798" stroke-width="1.2" stroke="#f00" stroke-miterlimit="10" fill="none"/><path d="M93.715 206.16l-4.97 11.797" stroke-width="1.2" stroke="#000" stroke-miterlimit="10" fill="none"/><path d="M88.746 217.957l-4.965 11.8" stroke-width="1.2" stroke="#f00" stroke-miterlimit="10" fill="none"/><path d="M90.938 204.992l20.738-.062" stroke-width="1.2" stroke="#000" stroke-miterlimit="10" fill="none"/><path d="M72.004 222.086h9v13h-9zm0 0" fill="#fff"/><use xlink:href="#b" x="72.004" y="231.987" fill="#f00"/><path d="M95.23 137.656L81.98 115.75M81.98 115.75l12.348-22.43M77.938 110.602l9.878-17.946M56.383 116.27l25.597-.52M94.328 93.32l-13.25-21.906M81.078 71.414l-25.598.52M78.64 77.488l-20.48.418M55.48 71.934l-12.347 22.43M43.133 94.363l13.25 21.907M49.613 93.438l10.602 17.523M103.56 170.754l2.538 10.055" stroke-width="1.2" stroke="#000" stroke-miterlimit="10" fill="none"/><path d="M106.098 180.81l2.54 10.053" stroke-width="1.2" stroke="#f00" stroke-miterlimit="10" fill="none"/><path d="M109.402 169.28l2.535 10.056" stroke-width="1.2" stroke="#000" stroke-miterlimit="10" fill="none"/><path d="M111.938 179.336l2.54 10.05" stroke-width="1.2" stroke="#f00" stroke-miterlimit="10" fill="none"/><path d="M106.48 170.02l10.2-7.735" stroke-width="1.2" stroke="#000" stroke-miterlimit="10" fill="none"/><path d="M116.68 162.285l10.203-7.734" stroke-width="1.2" stroke="#00f" stroke-miterlimit="10" fill="none"/><path d="M107.56 183.625h9v13h-9zm0 0" fill="#fff"/><use xlink:href="#b" x="107.559" y="193.526" fill="#f00"/><path d="M126.883 154.55l11.797 4.97" stroke-width="1.2" stroke="#00f" stroke-miterlimit="10" fill="none"/><path d="M138.68 159.52l11.8 4.964" stroke-width="1.2" stroke="#000" stroke-miterlimit="10" fill="none"/><path d="M118.883 148.05h17v13h-17zm0 0" fill="#fff"/><g fill="#00f"><use xlink:href="#a" x="118.883" y="157.952"/><use xlink:href="#c" x="126.866" y="157.952"/></g><path d="M150.48 164.484l20.4-15.468M170.88 149.016l23.597 9.937M194.477 158.953l5.832 24.93M200.926 160.074l4.668 19.942M216.383 145.703l-21.906 13.25M200.31 183.883l12.756 1.078" stroke-width="1.2" stroke="#000" stroke-miterlimit="10" fill="none"/><path d="M213.066 184.96l12.754 1.08M225.82 186.04l4.97-11.802" stroke-width="1.2" stroke="#00f" stroke-miterlimit="10" fill="none"/><path d="M230.79 174.238l4.964-11.797" stroke-width="1.2" stroke="#000" stroke-miterlimit="10" fill="none"/><path d="M217.82 179.54h17v13h-17zm0 0" fill="#fff"/><g fill="#00f"><use xlink:href="#a" x="217.82" y="189.44"/><use xlink:href="#c" x="225.804" y="189.44"/></g><path d="M235.754 162.44l24.184-8.405M236.195 155.91l19.348-6.722M216.383 145.703l19.37 16.738M259.938 154.035l4.812-25.144M264.75 128.89l-19.37-16.742M258.875 131.773l-15.5-13.39M245.38 112.148l-24.185 8.407M221.195 120.555l-4.812 25.148M226.633 124.203l-3.852 20.117" stroke-width="1.2" stroke="#000" stroke-miterlimit="10" fill="none"/></g></svg>
